X:166
T: ES REDEN UND TRAEUMEN DIE MENSCHEN
N: F0301
O: Europa, Mitteleuropa, Deutschland
R: Jugend - Lied, Belehrung, Moral, Hoffnung
M: 6/8
L: 1/16
K: Bb
F2 | d3cB2B3AG2 | F4F2F4
F2 | B3AB2c3Bc2 | d6c2z2
F2 | d3cB2f3=ed2 | c3dc2c4
c2 | d4=e2f3cA2 | c6F2z2
F2 | c4F2d4FF | e4c2f4
dB | g4g2g3ec2 | f6-f4A2 | B4z6

@@@ Tune index: 5597
